X: 73
T:Ar Lan y Mor
T:On the Seashore
M:3/4
L:1/8
Q:130
S:Welsh Songs - Y Lolfa
A:Wales
Z:brian_martin12345@yahoo.com
K:F
c cc|c3A Bc|BA- Ac cc|c3A Bc|BA- Ac cc|!
c3A GF|DF- FF Fd|c3A GA|GF- F||
W:
W:
W:1. Ar lan y mor mae rhosys cochion,
W:Ar lan y mor mae lilis gwynion,
W:Ar lan y mor mae 'nghariad inne,
W:Yn cysgu'r nos a chodi'r bore.
W:
W:2. Ar lan y mor mae carreg wastad 
W:Lle bum yn siarad gair a'm cariad;
W:Oddeutu hon fe dyf y lili
W:Ac ambell sbrigyn o rosmari.
W:
W:3. Llawn yw'r mor o swnd a chregyn,
W:Llawn yw'r wy o wyn a melyn,
W:Llawn yw'r coed o ddail a blode,
W:Llawn o gariad merch wyf inne.
